icons/src/svg/speedometer.svg

<svg width="32" height="32" viewBox="0 0 32 32" fill="none" xmlns="http://www.w3.org/2000/svg">
<path fill-rule="evenodd" clip-rule="evenodd" d="M8.25201 8.73748C10.2132 7.0752 12.582 6.14352 15 5.94247V7.90156C15 8.454 15.4478 8.90185 16 8.90185C16.5523 8.90185 17 8.454 17 7.90156V5.94247C19.4186 6.14356 21.7878 7.07557 23.7492 8.73848L17.2935 15.1961C16.9019 15.0086 16.4632 14.9036 16 14.9036C14.3432 14.9036 13 16.2471 13 17.9045C13 19.5618 14.3432 20.9053 16 20.9053C17.6569 20.9053 19 19.5618 19 17.9045C19 17.4412 18.8951 17.0025 18.7077 16.6107L25.1634 10.1531C26.8258 12.1151 27.7575 14.485 27.9586 16.9042H26C25.4478 16.9042 25 17.352 25 17.9045C25 18.4569 25.4478 18.9048 26 18.9048H27.9586C27.7575 21.324 26.8258 23.6939 25.1634 25.6558L23.7775 24.2695C23.3869 23.8789 22.7538 23.8789 22.3632 24.2695C21.9727 24.6601 21.9727 25.2935 22.3632 25.6841L24.486 27.8074C24.8765 28.1981 25.5096 28.1981 25.9002 27.8074C25.9106 27.7971 25.9207 27.7865 25.9305 27.7758C31.3669 22.3044 31.3565 13.4607 25.8995 8.00209C20.4379 2.53885 11.5863 2.53317 6.11759 7.98503L6.1014 8.00087L6.08572 8.0169C0.633169 13.487 0.638099 22.3428 6.10051 27.8068L6.10185 27.8055L6.10379 27.8074C6.49431 28.1981 7.12748 28.1981 7.518 27.8074L9.6407 25.6841C10.0313 25.2935 10.0313 24.6601 9.6407 24.2695C9.25018 23.8789 8.61702 23.8789 8.22649 24.2695L6.83845 25.658C5.17492 23.6956 4.2426 21.3249 4.04149 18.9048H6C6.55229 18.9048 7 18.4569 7 17.9045C7 17.352 6.55229 16.9042 6 16.9042H4.04149C4.24256 14.4845 5.17461 12.1141 6.83762 10.152L8.2241 11.5388C8.61462 11.9295 9.24779 11.9295 9.63831 11.5388C10.0289 11.1482 10.0289 10.5149 9.63831 10.1242L8.25201 8.73748ZM15 17.9045C15 17.352 15.4478 16.9042 16 16.9042C16.5523 16.9042 17 17.352 17 17.9045C17 18.4569 16.5523 18.9048 16 18.9048C15.4478 18.9048 15 18.4569 15 17.9045Z" fill="#0D0F13"/>
</svg>

<svg fill="none" xmlns="http://www.w3.org/2000/svg" viewBox="0 0 32 32">
  <path fill-rule="evenodd" clip-rule="evenodd" d="M8.252 8.737A11.946 11.946 0 0 1 15 5.942v1.96a1 1 0 1 0 2 0v-1.96a11.945 11.945 0 0 1 6.75 2.796l-6.456 6.458a3 3 0 1 0 1.414 1.415l6.456-6.458a11.953 11.953 0 0 1 2.795 6.75H26a1 1 0 0 0 0 2.001h1.959a11.953 11.953 0 0 1-2.795 6.751l-1.386-1.386a1 1 0 1 0-1.415 1.415l2.123 2.123a1 1 0 0 0 1.445-.032c5.436-5.471 5.426-14.315-.031-19.773-5.462-5.464-14.313-5.47-19.782-.017L6.102 8l-.016.016c-5.453 5.47-5.448 14.325.015 19.79l.001-.002.002.002a1 1 0 0 0 1.414 0l2.123-2.123a1 1 0 0 0-1.414-1.415l-1.388 1.389a11.953 11.953 0 0 1-2.797-6.754H6a1 1 0 0 0 0-2H4.042a11.952 11.952 0 0 1 2.796-6.752l1.386 1.386a1 1 0 1 0 1.415-1.414L8.252 8.737ZM15 17.904a1 1 0 1 1 2 0 1 1 0 0 1-2 0Z" fill="currentColor"/>
</svg>
